; G-Code generated by Simplify3D(R) Version 4.1.2
; Apr 21, 2020 at 6:47:40 PM
; Settings Summary
;   processName,Example
;   applyToModels,3DBenchy
;   profileName,Example (modified)
;   profileVersion,2020-04-15 11:58:43
;   baseProfile,Wanhao Duplicator i3(2)
;   printMaterial,PLA
;   printQuality,High
;   printExtruders,
;   extruderName,Primary Extruder
;   extruderToolheadNumber,0
;   extruderDiameter,0.4
;   extruderAutoWidth,0
;   extruderWidth,0.4
;   extrusionMultiplier,0.95
;   extruderUseRetract,1
;   extruderRetractionDistance,0.5
;   extruderExtraRestartDistance,-0.1
;   extruderRetractionZLift,0
;   extruderRetractionSpeed,1800
;   extruderUseCoasting,1
;   extruderCoastingDistance,0.1
;   extruderUseWipe,1
;   extruderWipeDistance,3
;   primaryExtruder,0
;   layerHeight,0.04
;   topSolidLayers,3
;   bottomSolidLayers,3
;   perimeterOutlines,3
;   printPerimetersInsideOut,1
;   startPointOption,3
;   startPointOriginX,101
;   startPointOriginY,101
;   sequentialIslands,0
;   spiralVaseMode,0
;   firstLayerHeightPercentage,125
;   firstLayerWidthPercentage,90
;   firstLayerUnderspeed,0.3
;   useRaft,0
;   raftExtruder,0
;   raftTopLayers,3
;   raftBaseLayers,2
;   raftOffset,3
;   raftSeparationDistance,0.14
;   raftTopInfill,100
;   aboveRaftSpeedMultiplier,0.3
;   useSkirt,1
;   skirtExtruder,0
;   skirtLayers,2
;   skirtOutlines,3
;   skirtOffset,4
;   usePrimePillar,0
;   primePillarExtruder,999
;   primePillarWidth,12
;   primePillarLocation,7
;   primePillarSpeedMultiplier,1
;   useOozeShield,0
;   oozeShieldExtruder,999
;   oozeShieldOffset,2
;   oozeShieldOutlines,1
;   oozeShieldSidewallShape,1
;   oozeShieldSidewallAngle,30
;   oozeShieldSpeedMultiplier,1
;   infillExtruder,0
;   internalInfillPattern,Fast Honeycomb
;   externalInfillPattern,Rectilinear
;   infillPercentage,15
;   outlineOverlapPercentage,30
;   infillExtrusionWidthPercentage,125
;   minInfillLength,5
;   infillLayerInterval,1
;   internalInfillAngles,0
;   overlapInternalInfillAngles,0
;   externalInfillAngles,45,-45
;   generateSupport,0
;   supportExtruder,0
;   supportInfillPercentage,30
;   supportExtraInflation,1
;   supportBaseLayers,2
;   denseSupportExtruder,0
;   denseSupportLayers,3
;   denseSupportInfillPercentage,70
;   supportLayerInterval,1
;   supportHorizontalPartOffset,0.4
;   supportUpperSeparationLayers,1
;   supportLowerSeparationLayers,1
;   supportType,0
;   supportGridSpacing,4
;   maxOverhangAngle,45
;   supportAngles,0
;   temperatureName,Primary Extruder,Heated Bed
;   temperatureNumber,0,0
;   temperatureSetpointCount,1,2
;   temperatureSetpointLayers,1,1,2
;   temperatureSetpointTemperatures,200,60,55
;   temperatureStabilizeAtStartup,1,1
;   temperatureHeatedBed,0,1
;   fanLayers,1,2
;   fanSpeeds,0,75
;   blipFanToFullPower,0
;   adjustSpeedForCooling,1
;   minSpeedLayerTime,15
;   minCoolingSpeedSlowdown,20
;   increaseFanForCooling,0
;   minFanLayerTime,45
;   maxCoolingFanSpeed,100
;   increaseFanForBridging,0
;   bridgingFanSpeed,100
;   use5D,1
;   relativeEdistances,0
;   allowEaxisZeroing,1
;   independentExtruderAxes,0
;   includeM10123,0
;   stickySupport,1
;   applyToolheadOffsets,0
;   gcodeXoffset,0
;   gcodeYoffset,0
;   gcodeZoffset,0
;   overrideMachineDefinition,1
;   machineTypeOverride,0
;   strokeXoverride,200
;   strokeYoverride,200
;   strokeZoverride,180
;   originOffsetXoverride,0
;   originOffsetYoverride,0
;   originOffsetZoverride,0
;   homeXdirOverride,-1
;   homeYdirOverride,-1
;   homeZdirOverride,-1
;   flipXoverride,1
;   flipYoverride,-1
;   flipZoverride,1
;   toolheadOffsets,0,0|0,0|0,0|0,0|0,0|0,0
;   overrideFirmwareConfiguration,1
;   firmwareTypeOverride,RepRap (Marlin/Repetier/Sprinter)
;   GPXconfigOverride,r2
;   baudRateOverride,115200
;   overridePrinterModels,1
;   printerModelsOverride
;   startingGcode,G28;,G29 ;initiate z-probing,G0 X0 Y0 F9000 ; Go to front,G0 Z0.15 ; Drop to bed,G92 E0 ; zero the extruded length,G1 Y10;,G1 X160 Y10 E75 F1500 ; Extrude 75mm of filament in a 16cm line,G92 E0 ; zero the extruded length,,
;   layerChangeGcode,
;   retractionGcode,
;   toolChangeGcode,
;   endingGcode,M400;,M18;,G28 X0;,M400;,G28 Y0; home X-axis and Y-axis,M18;,M104 S0 ; turn off extruder,M140 S0 ; turn off bed,M107; fan off
;   exportFileFormat,gcode
;   celebration,0
;   celebrationSong,Star Wars
;   postProcessing,
;   defaultSpeed,2700
;   outlineUnderspeed,0.5
;   solidInfillUnderspeed,0.8
;   supportUnderspeed,0.8
;   rapidXYspeed,4800
;   rapidZspeed,1002
;   minBridgingArea,50
;   bridgingExtraInflation,0
;   bridgingExtrusionMultiplier,1
;   bridgingSpeedMultiplier,1
;   useFixedBridgingAngle,0
;   fixedBridgingAngle,0
;   applyBridgingToPerimeters,0
;   filamentDiameters,1.75|1.75|1.75|1.75|1.75|1.75
;   filamentPricesPerKg,26.4|26.4|26.4|26.4|26.4|26.4
;   filamentDensities,1.25|1.25|1.25|1.25|1.25|1.25
;   useMinPrintHeight,0
;   minPrintHeight,0.4
;   useMaxPrintHeight,0
;   maxPrintHeight,24.14
;   useDiaphragm,0
;   diaphragmLayerInterval,20
;   robustSlicing,1
;   mergeAllIntoSolid,0
;   onlyRetractWhenCrossingOutline,0
;   retractBetweenLayers,1
;   useRetractionMinTravel,1
;   retractionMinTravel,2
;   retractWhileWiping,1
;   onlyWipeOutlines,1
;   avoidCrossingOutline,1
;   maxMovementDetourFactor,3
;   toolChangeRetractionDistance,12
;   toolChangeExtraRestartDistance,-0.5
;   toolChangeRetractionSpeed,600
;   externalThinWallType,0
;   internalThinWallType,2
;   thinWallAllowedOverlapPercentage,10
;   singleExtrusionMinLength,1
;   singleExtrusionMinPrintingWidthPercentage,50
;   singleExtrusionMaxPrintingWidthPercentage,200
;   singleExtrusionEndpointExtension,0.2
;   horizontalSizeCompensation,0
G90
M82
M106 S0
M140 S60
M190 S60
M104 S200 T0
M109 S200 T0
G28;
G29 ;initiate z-probing
G0 X0 Y0 F9000 ; Go to front
G0 Z0.15 ; Drop to bed
G92 E0 ; zero the extruded length
G1 Y10;
G1 X160 Y10 E75 F1500 ; Extrude 75mm of filament in a 16cm line
G92 E0 ; zero the extruded length
; process Trudy PLA-1
; layer 1, Z = 0.050
T0
G92 E0.0000
G1 E-0.5000 F1800
; feature skirt
; tool H0.050 W0.360
G1 Z0.050 F1002
G1 X102.822 Y107.019 F4800
G1 E-0.1000 F1800
G92 E0.0000
G1 X102.550 Y107.098 E0.0020 F810
G1 X101.775 Y107.277 E0.0077
G1 X101.507 Y107.323 E0.0096
G1 X100.718 Y107.414 E0.0152
G1 X100.446 Y107.430 E0.0172
G1 X99.714 Y107.433 E0.0224
G1 X99.554 Y107.428 E0.0235
G1 X91.846 Y106.952 E0.0784
G1 X91.285 Y106.851 E0.0825
G1 X90.414 Y106.587 E0.0889
G1 X89.638 Y106.192 E0.0951
G1 X88.792 Y105.552 E0.1027
G1 X88.195 Y104.901 E0.1090
G1 X87.662 Y104.056 E0.1161
G1 X87.361 Y103.363 E0.1214
G1 X87.146 Y102.541 E0.1275
G1 X87.066 Y101.923 E0.1319
G1 X87.061 Y98.266 E0.1579
G1 X87.101 Y97.819 E0.1611
G1 X87.268 Y96.906 E0.1677
G1 X87.604 Y96.041 E0.1743
G1 X88.185 Y95.111 E0.1821
G1 X88.788 Y94.452 E0.1884
G1 X89.638 Y93.808 E0.1960
G1 X90.414 Y93.413 E0.2022
G1 X91.289 Y93.148 E0.2087
G1 X91.856 Y93.047 E0.2128
G1 X100.058 Y92.562 E0.2712
G1 X100.401 Y92.566 E0.2737
G1 X101.135 Y92.625 E0.2789
G1 X101.402 Y92.662 E0.2808
G1 X102.264 Y92.828 E0.2870
G1 X102.560 Y92.905 E0.2892
G1 X103.412 Y93.183 E0.2956
G1 X103.703 Y93.299 E0.2978
G1 X104.528 Y93.691 E0.3043
G1 X104.793 Y93.837 E0.3065
G1 X105.514 Y94.296 E0.3125
G1 X105.763 Y94.477 E0.3147
G1 X106.456 Y95.053 E0.3211
G1 X106.643 Y95.225 E0.3229
G1 X107.061 Y95.652 E0.3272
G1 X107.230 Y95.843 E0.3290
G1 X107.784 Y96.542 E0.3353
G1 X107.939 Y96.761 E0.3373
G1 X108.346 Y97.408 E0.3427
G1 X108.572 Y97.866 E0.3463
G1 X108.840 Y98.592 E0.3518
G1 X108.991 Y99.362 E0.3574
G1 X109.023 Y100.303 E0.3641
G1 X108.910 Y101.131 E0.3700
G1 X108.629 Y102.020 E0.3767
G1 X108.298 Y102.691 E0.3820
G1 X107.486 Y103.852 E0.3920
G1 X107.250 Y104.139 E0.3947
G1 X106.641 Y104.776 E0.4010
G1 X106.432 Y104.971 E0.4030
G1 X105.795 Y105.499 E0.4089
G1 X105.562 Y105.669 E0.4109
G1 X104.858 Y106.124 E0.4169
G1 X104.612 Y106.264 E0.4189
G1 X103.881 Y106.625 E0.4247
G1 X103.616 Y106.737 E0.4267
G1 X102.822 Y107.019 E0.4327
G1 X102.711 Y106.676 F4800
G92 E0.0000
G1 X102.460 Y106.750 E0.0019 F810
G1 X101.704 Y106.924 E0.0074
G1 X101.455 Y106.966 E0.0092
G1 X100.687 Y107.055 E0.0147
G1 X100.435 Y107.070 E0.0165
G1 X99.719 Y107.073 E0.0216
G1 X99.570 Y107.069 E0.0226
G1 X91.889 Y106.594 E0.0773
G1 X91.370 Y106.500 E0.0811
G1 X90.549 Y106.252 E0.0872
G1 X89.830 Y105.886 E0.0929
G1 X89.036 Y105.284 E0.1000
G1 X88.482 Y104.682 E0.1058
G1 X87.981 Y103.887 E0.1125
G1 X87.703 Y103.246 E0.1175
G1 X87.500 Y102.472 E0.1231
G1 X87.426 Y101.900 E0.1272
G1 X87.421 Y98.282 E0.1530
G1 X87.458 Y97.868 E0.1559
G1 X87.616 Y97.004 E0.1622
G1 X87.927 Y96.203 E0.1683
G1 X88.473 Y95.330 E0.1756
G1 X89.032 Y94.719 E0.1815
G1 X89.830 Y94.114 E0.1886
G1 X90.549 Y93.748 E0.1943
G1 X91.373 Y93.499 E0.2005
G1 X91.898 Y93.405 E0.2042
G1 X100.067 Y92.922 E0.2624
G1 X100.384 Y92.926 E0.2647
G1 X101.097 Y92.983 E0.2698
G1 X101.344 Y93.017 E0.2715
G1 X102.185 Y93.180 E0.2776
G1 X102.459 Y93.250 E0.2796
G1 X103.289 Y93.521 E0.2858
G1 X103.559 Y93.629 E0.2879
G1 X104.363 Y94.011 E0.2942
G1 X104.609 Y94.147 E0.2962
G1 X105.311 Y94.594 E0.3021
G1 X105.541 Y94.762 E0.3042
G1 X106.219 Y95.324 E0.3104
G1 X106.392 Y95.483 E0.3121
G1 X106.797 Y95.897 E0.3162
G1 X106.953 Y96.074 E0.3179
G1 X107.496 Y96.758 E0.3241
G1 X107.640 Y96.961 E0.3259
G1 X108.032 Y97.584 E0.3311
G1 X108.240 Y98.008 E0.3345
G1 X108.492 Y98.690 E0.3396
G1 X108.632 Y99.403 E0.3448
G1 X108.662 Y100.285 E0.3511
G1 X108.557 Y101.051 E0.3566
G1 X108.294 Y101.885 E0.3628
G1 X107.987 Y102.507 E0.3677
G1 X107.198 Y103.634 E0.3775
G1 X106.980 Y103.901 E0.3800
G1 X106.388 Y104.520 E0.3860
G1 X106.194 Y104.701 E0.3879
G1 X105.573 Y105.215 E0.3937
G1 X105.358 Y105.373 E0.3956
G1 X104.671 Y105.817 E0.4014
G1 X104.444 Y105.945 E0.4032
G1 X103.731 Y106.297 E0.4089
G1 X103.486 Y106.401 E0.4108
G1 X102.711 Y106.676 E0.4166
G1 X102.600 Y106.334 F4800
G92 E0.0000
G1 X102.369 Y106.401 E0.0017 F810
G1 X101.633 Y106.570 E0.0071
G1 X101.404 Y106.610 E0.0087
G1 X100.655 Y106.696 E0.0141
G1 X100.423 Y106.710 E0.0157
G1 X99.723 Y106.713 E0.0207
G1 X99.586 Y106.709 E0.0217
G1 X91.932 Y106.236 E0.0762
G1 X91.454 Y106.150 E0.0797
G1 X90.684 Y105.917 E0.0854
G1 X90.022 Y105.580 E0.0907
G1 X89.279 Y105.017 E0.0973
G1 X88.769 Y104.462 E0.1027
G1 X88.300 Y103.718 E0.1089
G1 X88.044 Y103.128 E0.1135
G1 X87.855 Y102.404 E0.1188
G1 X87.786 Y101.876 E0.1226
G1 X87.781 Y98.298 E0.1480
G1 X87.815 Y97.917 E0.1507
G1 X87.964 Y97.103 E0.1566
G1 X88.250 Y96.365 E0.1623
G1 X88.761 Y95.549 E0.1691
G1 X89.275 Y94.986 E0.1745
G1 X90.022 Y94.420 E0.1812
G1 X90.684 Y94.083 E0.1865
G1 X91.457 Y93.849 E0.1922
G1 X91.940 Y93.763 E0.1957
G1 X100.076 Y93.283 E0.2536
G1 X100.368 Y93.286 E0.2557
G1 X101.058 Y93.341 E0.2606
G1 X101.285 Y93.373 E0.2623
G1 X102.106 Y93.531 E0.2682
G1 X102.358 Y93.596 E0.2701
G1 X103.166 Y93.860 E0.2761
G1 X103.415 Y93.959 E0.2780
G1 X104.199 Y94.331 E0.2842
G1 X104.425 Y94.456 E0.2860
G1 X105.108 Y94.891 E0.2918
G1 X105.320 Y95.046 E0.2936
G1 X105.982 Y95.595 E0.2997
G1 X106.141 Y95.742 E0.3013
G1 X106.534 Y96.142 E0.3053
G1 X106.677 Y96.305 E0.3068
G1 X107.208 Y96.974 E0.3129
G1 X107.340 Y97.161 E0.3145
G1 X107.717 Y97.760 E0.3195
G1 X107.909 Y98.150 E0.3226
G1 X108.144 Y98.788 E0.3275
G1 X108.273 Y99.444 E0.3322
G1 X108.301 Y100.267 E0.3381
G1 X108.205 Y100.972 E0.3431
G1 X107.959 Y101.751 E0.3489
G1 X107.676 Y102.323 E0.3535
G1 X106.911 Y103.416 E0.3630
G1 X106.710 Y103.662 E0.3652
G1 X106.135 Y104.264 E0.3711
G1 X105.957 Y104.430 E0.3729
G1 X105.352 Y104.930 E0.3784
G1 X105.153 Y105.076 E0.3802
G1 X104.484 Y105.509 E0.3859
G1 X104.275 Y105.627 E0.3876
G1 X103.581 Y105.970 E0.3931
G1 X103.355 Y106.065 E0.3948
G1 X102.600 Y106.334 E0.4005
G92 E0.0000
G1 E-0.5000 F1800
; feature inner perimeter
G1 X101.324 Y102.129 F4800
G1 X101.621 Y102.025
G1 X101.850 Y101.926
G1 X101.372 Y99.115
G1 E-0.1000 F1800
G92 E0.0000
G1 X101.292 Y99.057 E0.0007 F608
G1 X101.049 Y98.987 E0.0025
G1 X100.773 Y99.002 E0.0045
G1 X100.678 Y99.052 E0.0052
G1 X100.581 Y98.971 E0.0061
G1 X100.080 Y99.031 E0.0097
G1 X100.043 Y99.066 E0.0101
G1 X99.837 Y98.985 E0.0117
G1 X99.541 Y98.999 E0.0138
G1 X99.064 Y99.284 E0.0177
G1 X98.876 Y98.993 E0.0202
G1 X98.691 Y98.806 E0.0220
G1 X98.490 Y98.679 E0.0237
G1 X98.277 Y98.602 E0.0253
G1 X98.026 Y98.557 E0.0272
G1 X97.202 Y98.553 E0.0330
G1 X96.944 Y98.695 E0.0351
G1 X96.493 Y98.488 E0.0386
G1 X96.540 Y98.239 E0.0404
G1 X99.757 Y98.042 E0.0633
G1 X100.314 Y98.045 E0.0673
G1 X100.841 Y98.119 E0.0711
G1 X101.375 Y98.268 E0.0750
G1 X101.588 Y98.350 E0.0767
G1 X101.849 Y98.471 E0.0787
G1 X102.356 Y98.772 E0.0829
G1 X102.302 Y99.003 E0.0846
G1 X102.192 Y99.011 E0.0854
G1 X102.107 Y99.059 E0.0861
G1 X101.826 Y98.956 E0.0882
G1 X101.466 Y99.082 E0.0909
G1 X101.372 Y99.115 F608
G92 E0.0000
G1 E-0.5000 F1800
G1 X100.585 Y100.514 F4800
G1 X100.689 Y100.696
G1 X100.708 Y100.819
G1 X100.683 Y100.957
G1 X100.601 Y101.066
G1 X100.494 Y101.126
G1 X100.300 Y101.141
G1 X100.250 Y101.111
G1 X100.103 Y101.373
G1 E-0.1000 F1800
G92 E0.0000
G1 X100.248 Y101.957 E0.0043 F608
G1 X100.042 Y101.966 E0.0057
G1 X99.761 Y101.958 E0.0077
G1 X99.003 Y101.912 E0.0131
G1 X96.431 Y101.756 E0.0315
G1 X96.397 Y101.491 E0.0334
G1 X96.706 Y101.389 E0.0357
G1 X96.872 Y101.295 E0.0370
G1 X97.285 Y101.447 E0.0402
G1 X97.999 Y101.424 E0.0452
G1 X98.410 Y101.344 E0.0482
G1 X98.589 Y101.491 E0.0499
G1 X98.941 Y101.594 E0.0525
G1 X99.303 Y101.538 E0.0551
G1 X99.417 Y101.468 E0.0560
G1 X99.812 Y101.506 E0.0589
G1 X100.012 Y101.414 E0.0604
G1 X100.103 Y101.373 F608
G92 E0.0000
G1 E-0.5000 F1800
G1 X95.802 Y101.472 F4800
G1 E-0.1000 F1800
G92 E0.0000
G1 X95.726 Y101.714 E0.0018 F608
G1 X94.633 Y101.647 E0.0096
G1 X95.322 Y101.096 E0.0159
G1 X95.416 Y101.237 E0.0171
G1 X95.717 Y101.420 E0.0196
G1 X95.802 Y101.472 F608
G1 X94.317 Y101.628 F4800
G92 E0.0000
G1 X93.686 Y101.590 E0.0045 F608
G1 X93.627 Y101.362 E0.0062
G1 X93.837 Y101.229 E0.0079
G1 X94.012 Y101.023 E0.0099
G1 X94.272 Y101.539 E0.0140
G1 X94.317 Y101.628 F608
; feature outer perimeter
G1 X94.417 Y101.025 F4800
G92 E0.0000
G1 X94.654 Y101.087 E0.0017 F405
G1 X94.798 Y101.054 E0.0028
G1 X94.918 Y100.958 E0.0039
G1 X94.985 Y100.756 E0.0054
G1 X94.980 Y99.559 E0.0139
G1 X95.154 Y99.563 E0.0151
G1 X95.383 Y99.535 E0.0168
G1 X95.540 Y99.416 E0.0182
G1 X95.552 Y99.355 E0.0186
G1 X95.554 Y99.370 E0.0187
G1 X95.604 Y99.474 E0.0196
G1 X95.693 Y99.571 E0.0205
G1 X95.818 Y99.633 E0.0215
G1 X95.896 Y99.620 E0.0221
G1 X95.875 Y99.631 E0.0222
G1 X95.777 Y99.773 E0.0234
G1 X95.750 Y99.943 E0.0247
G1 X95.788 Y100.081 E0.0257
G1 X95.893 Y100.180 E0.0267
G1 X96.172 Y100.254 E0.0288
G1 X96.260 Y100.323 E0.0296
G1 X96.282 Y100.359 E0.0299
G1 X96.292 Y100.393 E0.0301
G1 X96.291 Y100.421 E0.0303
G1 X96.285 Y100.440 E0.0305
G1 X96.255 Y100.474 E0.0308
G1 X96.224 Y100.486 E0.0310
G1 X96.216 Y100.485 E0.0311
G1 X96.064 Y100.380 E0.0324
G1 X95.906 Y100.338 E0.0336
G1 X95.693 Y100.383 E0.0351
G1 X95.589 Y100.487 E0.0361
G1 X95.543 Y100.605 E0.0370
G1 X95.560 Y100.805 E0.0385
G1 X95.671 Y100.970 E0.0399
G1 X95.827 Y101.065 E0.0412
G1 X96.053 Y101.121 E0.0428
G1 X96.241 Y101.127 E0.0442
G1 X96.411 Y101.107 E0.0454
G1 X96.559 Y101.058 E0.0465
G1 X96.668 Y100.996 E0.0474
G1 X96.787 Y100.894 E0.0485
G1 X96.885 Y100.762 E0.0497
G1 X96.953 Y100.610 E0.0509
G1 X96.989 Y100.452 E0.0520
G1 X96.975 Y100.229 E0.0536
G1 X96.866 Y99.911 E0.0560
G1 X96.790 Y99.839 E0.0567
G1 X96.871 Y99.743 E0.0576
G1 X96.916 Y99.474 E0.0596
G1 X96.887 Y99.230 E0.0613
G1 X96.791 Y99.070 E0.0626
G1 X96.673 Y98.966 E0.0638
G1 X96.502 Y98.888 E0.0651
G1 X96.342 Y98.856 E0.0663
G1 X96.081 Y98.856 E0.0681
G1 X95.873 Y98.902 E0.0696
G1 X95.650 Y99.032 E0.0715
G1 X95.573 Y99.162 E0.0725
G1 X95.514 Y98.994 E0.0738
G1 X95.342 Y98.907 E0.0752
G1 X93.948 Y98.903 E0.0851
G1 X93.779 Y99.053 E0.0867
G1 X93.749 Y99.207 E0.0878
G1 X93.656 Y99.076 E0.0889
G1 X93.498 Y98.955 E0.0904
G1 X93.352 Y98.891 E0.0915
G1 X93.177 Y98.856 E0.0927
G1 X92.965 Y98.853 E0.0943
G1 X92.792 Y98.882 E0.0955
G1 X92.628 Y98.943 E0.0967
G1 X92.459 Y99.050 E0.0982
